images/item-area-icon6.svg

<svg width="32" height="40" viewBox="0 0 32 40" fill="none" xmlns="http://www.w3.org/2000/svg">
<path fill-rule="evenodd" clip-rule="evenodd" d="M2.66663 9.66663C3.21891 9.66663 3.66663 10.1143 3.66663 10.6666V34.6666C3.66663 35.1087 3.84222 35.5326 4.15478 35.8451C4.46734 36.1577 4.89127 36.3333 5.33329 36.3333H29.3333C29.8856 36.3333 30.3333 36.781 30.3333 37.3333C30.3333 37.8856 29.8856 38.3333 29.3333 38.3333H5.33329C4.36083 38.3333 3.4282 37.947 2.74057 37.2594C2.05293 36.5717 1.66663 35.6391 1.66663 34.6666V10.6666C1.66663 10.1143 2.11434 9.66663 2.66663 9.66663Z" fill="#2667FF"/>
<path fill-rule="evenodd" clip-rule="evenodd" d="M10 25C9.44772 25 9 25.4477 9 26V30C9 30.5523 9.44772 31 10 31C10.5523 31 11 30.5523 11 30V26C11 25.4477 10.5523 25 10 25ZM7 26C7 24.3431 8.34315 23 10 23C11.6569 23 13 24.3431 13 26V30C13 31.6569 11.6569 33 10 33C8.34315 33 7 31.6569 7 30V26Z" fill="#2667FF"/>
<path fill-rule="evenodd" clip-rule="evenodd" d="M18 18.3333C17.4477 18.3333 17 18.781 17 19.3333V23.3333C17 23.8855 17.4477 24.3333 18 24.3333C18.5523 24.3333 19 23.8855 19 23.3333V19.3333C19 18.781 18.5523 18.3333 18 18.3333ZM15 19.3333C15 17.6764 16.3431 16.3333 18 16.3333C19.6569 16.3333 21 17.6764 21 19.3333V23.3333C21 24.9901 19.6569 26.3333 18 26.3333C16.3431 26.3333 15 24.9901 15 23.3333V19.3333Z" fill="#2667FF"/>
<path fill-rule="evenodd" clip-rule="evenodd" d="M26 13C25.4477 13 25 13.4477 25 14V18C25 18.5523 25.4477 19 26 19C26.5523 19 27 18.5523 27 18V14C27 13.4477 26.5523 13 26 13ZM23 14C23 12.3431 24.3431 11 26 11C27.6569 11 29 12.3431 29 14V18C29 19.6569 27.6569 21 26 21C24.3431 21 23 19.6569 23 18V14Z" fill="#2667FF"/>
</svg>

<svg xmlns="http://www.w3.org/2000/svg" width="32" height="40" fill="none"><path fill="#2667FF" fill-rule="evenodd" d="M2.667 9.667a1 1 0 0 1 1 1v24a1.666 1.666 0 0 0 1.666 1.666h24a1 1 0 1 1 0 2h-24a3.667 3.667 0 0 1-3.666-3.666v-24a1 1 0 0 1 1-1Z" clip-rule="evenodd"/><path fill="#2667FF" fill-rule="evenodd" d="M10 25a1 1 0 0 0-1 1v4a1 1 0 1 0 2 0v-4a1 1 0 0 0-1-1Zm-3 1a3 3 0 1 1 6 0v4a3 3 0 1 1-6 0v-4ZM18 18.333a1 1 0 0 0-1 1v4a1 1 0 0 0 2 0v-4a1 1 0 0 0-1-1Zm-3 1a3 3 0 1 1 6 0v4a3 3 0 0 1-6 0v-4ZM26 13a1 1 0 0 0-1 1v4a1 1 0 1 0 2 0v-4a1 1 0 0 0-1-1Zm-3 1a3 3 0 1 1 6 0v4a3 3 0 1 1-6 0v-4Z" clip-rule="evenodd"/></svg>
